overrides/.icons/trt/thp.svg

<?xml version="1.0" encoding="UTF-8" standalone="no"?>
<svg
   viewBox="0 0 24 24"
   version="1.1"
   id="svg1"
   sodipodi:docname="temp.svg"
   inkscape:version="1.3.2 (091e20e, 2023-11-25, custom)"
   xmlns:inkscape="http://www.inkscape.org/namespaces/inkscape"
   xmlns:sodipodi="http://sodipodi.sourceforge.net/DTD/sodipodi-0.dtd"
   xmlns="http://www.w3.org/2000/svg"
   xmlns:svg="http://www.w3.org/2000/svg">
  <defs
     id="defs1" />
  <sodipodi:namedview
     id="namedview1"
     pagecolor="#ffffff"
     bordercolor="#111111"
     borderopacity="1"
     inkscape:showpageshadow="0"
     inkscape:pageopacity="0"
     inkscape:pagecheckerboard="1"
     inkscape:deskcolor="#d1d1d1"
     inkscape:zoom="11.313709"
     inkscape:cx="13.125669"
     inkscape:cy="16.396038"
     inkscape:window-width="1366"
     inkscape:window-height="697"
     inkscape:window-x="-8"
     inkscape:window-y="-8"
     inkscape:window-maximized="1"
     inkscape:current-layer="svg1" />
  <path
     d="M 18,14.000001 H 14.000001 V 18 H 9.9999999 V 14.000001 H 6.0000001 V 9.9999999 H 9.9999999 V 6.0000001 H 14.000001 V 9.9999999 H 18"
     id="path1"
     style="stroke-width:0.999997" />
  <path
     style="paint-order:fill markers stroke"
     d="m -4.6152344,-5.4394531 -6.5566406,6.5390625 -0.01367,9.2617186 6.5410158,6.556641 9.2597656,0.01172 6.5566406,-6.539062 0.01367,-9.2617188 -6.5410158,-6.5566406 z m 1.1054688,2.6816406 7.0410156,0.00977 4.9726563,4.984375 -0.00977,7.0390625 -4.984375,4.9726564 -7.0410156,-0.0078 -4.9726563,-4.9863277 0.00977,-7.0390625 z"
     id="path2"
     transform="matrix(0.91421402,0,0,0.91421402,12,6.7476191)" />
</svg>

<?xml version="1.0" encoding="UTF-8"?>
<svg id="svg1" version="1.1" viewBox="0 0 24 24" xmlns="http://www.w3.org/2000/svg">
 <path id="path1" d="m18 14h-4v4h-4v-4h-4v-4h4v-4h4v4h4"/>
 <path id="path2" transform="matrix(.91421 0 0 .91421 12 6.7476)" d="m-4.6152-5.4395-6.5566 6.5391-0.01367 9.2617 6.541 6.5566 9.2598 0.01172 6.5566-6.5391 0.01367-9.2617-6.541-6.5566zm1.1055 2.6816 7.041 0.00977 4.9727 4.9844-0.00977 7.0391-4.9844 4.9727-7.041-0.0078-4.9727-4.9863 0.00977-7.0391z" style="paint-order:fill markers stroke"/>
</svg>
